X:240
T:Brännvinspolska, Anglais efter Thorsjö
T:(SvL Småland 240)
R:Anglais
R:Brännvinspolska
R:Engelska
O:Markaryd, Småland
S:Nils Gustaf Lavin
N:SvL: Lavin har låten efter Thorsjö
B:Svenska Låtar Småland
Z:Till abc Jonas Brunskog
M:2/4
L:1/8
K:D
a(g/f/ e)f/g/|ac df|ag/f/ ef/g/|aA [dF]2:| |:[ec]/c/c/e/ ce|gg/g/ (f{gf})e|
c/c/c/c/ cB/c/|dc/B/ BA|A>c ef|g>f fe|c/c/c B/B/B/c/|dc/B/ A2:|

